assets/images/StarterX-Badges_Economic-Uncertainty.svg

<?xml version="1.0" encoding="UTF-8"?>
<svg id="Layer_1" data-name="Layer 1" xmlns="http://www.w3.org/2000/svg" xmlns:xlink="http://www.w3.org/1999/xlink" viewBox="0 0 80 80">
  <defs>
    <style>
      .cls-1 {
        fill: url(#linear-gradient);
        stroke-width: 0px;
      }
    </style>
    <linearGradient id="linear-gradient" x1="6.24" y1="40" x2="73.76" y2="40" gradientUnits="userSpaceOnUse">
      <stop offset="0" stop-color="#b1a45d"/>
      <stop offset="1" stop-color="#453e1b"/>
    </linearGradient>
  </defs>
  <g id="pshCPH.tif">
    <path class="cls-1" d="M60.22,57c-7.03-8.65-13.43-16.54-19.85-24.42-4.78-5.88-9.58-11.75-14.37-17.63-.68-.84-1.39-1.67-1.98-2.57-1.19-1.79-1.94-3.81.05-5.39,2.08-1.64,3.82-.25,5.17,1.38,6.3,7.64,12.54,15.32,18.8,23,7.82,9.59,15.69,19.15,23.44,28.8,3.7,4.61,2.9,7.53-2.53,10.07-4.43,2.08-9.3,2.67-14.03,2.92-12.99.67-26.01,1.32-38.9-1.41-8.13-1.72-9.77-3.65-9.77-11.81,0-15.15,0-30.3,0-45.46,0-1.24,0-2.47.03-3.71.07-2.18.66-4.28,3.25-4.18,2.26.09,2.88,2.03,2.92,4.05.03,2.01.04,4.02.04,6.03,0,12.68.01,25.36,0,38.03,0,2.12-.21,4.18,3.08,3.5,14.4-2.96,28.93-2.07,44.67-1.21ZM60.98,64.91c-13.99-2.61-27.93-2.83-41.85.05,13.96,2.73,27.92,2.72,41.85-.05Z"/>
  </g>
</svg>

<svg width="80" height="80" viewBox="0 0 80 80" fill="none" xmlns="http://www.w3.org/2000/svg">
<path d="M60.22 57C53.19 48.35 46.79 40.46 40.37 32.58C35.59 26.7 30.79 20.83 26 14.95C25.32 14.11 24.61 13.28 24.02 12.38C22.83 10.59 22.08 8.56995 24.07 6.98995C26.15 5.34995 27.89 6.73995 29.24 8.36995C35.54 16.01 41.78 23.69 48.04 31.37C55.86 40.96 63.73 50.52 71.48 60.17C75.18 64.78 74.38 67.7 68.95 70.24C64.52 72.32 59.65 72.91 54.92 73.16C41.93 73.83 28.91 74.48 16.02 71.75C7.89 70.03 6.25 68.1 6.25 59.94C6.25 44.79 6.25 29.64 6.25 14.48C6.25 13.24 6.25 12.01 6.28 10.77C6.35 8.58995 6.94 6.48995 9.53 6.58995C11.79 6.67995 12.41 8.61995 12.45 10.64C12.48 12.65 12.49 14.66 12.49 16.67C12.49 29.35 12.5 42.03 12.49 54.7C12.49 56.82 12.28 58.88 15.57 58.2C29.97 55.24 44.5 56.13 60.24 56.99L60.22 57ZM60.98 64.91C46.99 62.3 33.05 62.08 19.13 64.96C33.09 67.69 47.05 67.68 60.98 64.91Z" fill="#008A9B"/>
</svg>
